src/pos-icons/calendar-text-outline.svg

<svg height="24" viewBox="0 0 24 24" width="24" xmlns="http://www.w3.org/2000/svg"><path d="m19 4h-1v-2h-2v2h-8v-2h-2v2h-1a2 2 0 0 0 -2 2v14a2 2 0 0 0 2 2h14a2 2 0 0 0 2-2v-14a2 2 0 0 0 -2-2m0 16h-14v-10h14zm-14-12v-2h14v2zm2 4h10v2h-10zm0 4h7v2h-7z"/></svg>

<?xml version="1.0" encoding="UTF-8"?><!DOCTYPE svg PUBLIC "-//W3C//DTD SVG 1.1//EN" "http://www.w3.org/Graphics/SVG/1.1/DTD/svg11.dtd"><svg xmlns="http://www.w3.org/2000/svg" xmlns:xlink="http://www.w3.org/1999/xlink" version="1.1" id="mdi-calendar-text-outline" width="24" height="24" viewBox="0 0 24 24"><path d="M19,4H18V2H16V4H8V2H6V4H5A2,2 0 0,0 3,6V20A2,2 0 0,0 5,22H19A2,2 0 0,0 21,20V6A2,2 0 0,0 19,4M19,20H5V10H19V20M5,8V6H19V8H5M7,12H17V14H7V12M7,16H14V18H7V16Z" /></svg>
